logo/protoio.svg

<?xml version="1.0" encoding="UTF-8"?>
<svg width="512px" height="135px" viewBox="0 0 512 135" version="1.1" xmlns="http://www.w3.org/2000/svg" xmlns:xlink="http://www.w3.org/1999/xlink" preserveAspectRatio="xMidYMid">
    <g>
        <path d="M41.6960106,25.4902737 C64.6541378,25.4902737 83.3920211,44.0593472 83.3920211,67.0174744 C83.3920211,89.9756017 64.6541378,108.713485 41.6960106,108.713485 C34.4371909,108.713485 27.5159908,106.856578 21.6076492,103.649192 L21.6076492,103.649192 L21.6076492,135.047807 L0,125.93208 L0,67.1862842 C0,44.0593472 18.7378833,25.4902737 41.6960106,25.4902737 Z M249.332015,0 L249.332015,25.4902737 L269.420376,25.4902737 L269.420376,47.0979228 L249.332015,47.0979228 L249.332015,67.5239037 C249.332015,78.6653478 258.278932,87.6122651 269.420376,87.6122651 L269.420376,87.6122651 L269.420376,109.219914 C246.799868,109.219914 228.399604,91.15727 227.724365,68.705572 L227.724365,68.705572 L227.724365,9.28453676 L249.332015,0 Z M132.853281,25.4902737 L132.853281,47.0979228 C121.711836,47.0979228 112.764919,56.0448401 112.764919,67.1862842 L112.764919,67.1862842 L112.764919,109.219914 L91.15727,109.219914 L91.15727,66.0046159 L91.1828312,65.3323953 C92.2009364,43.1934713 110.458978,25.4902737 132.853281,25.4902737 L132.853281,25.4902737 Z M177.756677,25.4902737 C200.714804,25.4902737 219.283877,44.0593472 219.452687,67.1862842 C219.452687,90.1444115 200.714804,108.882295 177.756677,108.882295 C154.798549,108.882295 136.060666,90.1444115 136.060666,67.1862842 C136.060666,44.2281569 154.798549,25.4902737 177.756677,25.4902737 Z M316.349489,25.4902737 C339.307616,25.4902737 358.0455,44.0593472 358.0455,67.1862842 C358.0455,90.1444115 339.307616,108.882295 316.349489,108.882295 C293.391362,108.882295 274.653478,90.1444115 274.653478,67.1862842 C274.653478,44.2281569 293.391362,25.4902737 316.349489,25.4902737 Z M470.303989,25.4902737 C493.262117,25.4902737 512,44.0593472 512,67.1862842 C512,90.1444115 493.262117,108.882295 470.303989,108.882295 C447.345862,108.882295 428.607979,90.1444115 428.607979,67.1862842 C428.607979,44.2281569 447.345862,25.4902737 470.303989,25.4902737 Z M420.167491,25.4902737 L420.167491,108.882295 L398.559842,108.882295 L398.559842,25.4902737 L420.167491,25.4902737 Z M375.432905,80.8598747 C383.198154,80.8598747 389.444115,87.1058358 389.444115,94.8710847 C389.444115,102.636334 383.198154,108.882295 375.432905,108.882295 C367.667656,108.882295 361.421695,102.636334 361.421695,94.8710847 C361.421695,87.1058358 367.667656,80.8598747 375.432905,80.8598747 Z M177.756677,47.0979228 C166.615232,47.0979228 157.668315,56.0448401 157.668315,67.1862842 C157.668315,78.3277283 166.615232,87.2746456 177.756677,87.2746456 C188.729311,87.2746456 197.676228,78.1589186 197.845038,67.1862842 C197.845038,56.0448401 188.898121,47.0979228 177.756677,47.0979228 Z M316.349489,47.0979228 C305.208045,47.0979228 296.261128,56.0448401 296.261128,67.1862842 C296.261128,78.3277283 305.208045,87.2746456 316.349489,87.2746456 C327.322123,87.2746456 336.43785,78.1589186 336.43785,67.1862842 C336.43785,56.0448401 327.490933,47.0979228 316.349489,47.0979228 Z M41.6960106,47.0979228 C30.5545664,47.0979228 21.6076492,56.0448401 21.6076492,67.1862842 C21.6076492,78.3277283 30.5545664,87.2746456 41.6960106,87.2746456 C52.6686449,87.2746456 61.7843719,78.1589186 61.7843719,67.1862842 C61.7843719,56.0448401 52.8374547,47.0979228 41.6960106,47.0979228 Z M470.303989,47.0979228 C459.162545,47.0979228 450.215628,56.0448401 450.215628,67.1862842 C450.215628,78.3277283 459.162545,87.2746456 470.303989,87.2746456 C481.276624,87.2746456 490.392351,78.1589186 490.392351,67.1862842 C490.392351,56.0448401 481.445434,47.0979228 470.303989,47.0979228 Z" fill="#3E4245"></path>
    </g>
</svg>

<svg viewBox="0 0 512 135" xmlns="http://www.w3.org/2000/svg"><path fill="#3E4245" d="M41.69 25.49c22.95 0 41.69 18.56 41.69 41.52 0 22.95-18.74 41.69-41.7 41.69 -7.26 0-14.19-1.86-20.09-5.07v0 31.39L-.02 125.9V67.15c0-23.13 18.73-41.7 41.69-41.7ZM249.32-.01v25.49h20.08v21.6h-20.09V67.5c0 11.14 8.94 20.08 20.08 20.08v0 21.6c-22.63 0-41.03-18.07-41.7-40.52v0V9.23l21.6-9.29ZM132.84 25.48v21.6c-11.15 0-20.09 8.94-20.09 20.08v0 42.03H91.14V65.97l.02-.68c1.01-22.14 19.27-39.85 41.67-39.85v-.001Zm44.9 0c22.95 0 41.52 18.56 41.69 41.69 0 22.95-18.74 41.69-41.7 41.69 -22.96 0-41.7-18.74-41.7-41.7 0-22.96 18.73-41.7 41.69-41.7Zm138.59 0c22.95 0 41.69 18.56 41.69 41.69 0 22.95-18.74 41.69-41.7 41.69 -22.96 0-41.7-18.74-41.7-41.7 0-22.96 18.73-41.7 41.69-41.7Zm153.95 0c22.95 0 41.69 18.56 41.69 41.69 0 22.95-18.74 41.69-41.7 41.69 -22.96 0-41.7-18.74-41.7-41.7 0-22.96 18.73-41.7 41.69-41.7Zm-50.14 0v83.39h-21.61v-83.4h21.6ZM375.4 80.84c7.76 0 14.01 6.24 14.01 14.01 0 7.76-6.25 14.01-14.02 14.01s-14.02-6.25-14.02-14.02 6.24-14.02 14.01-14.02ZM177.72 47.07c-11.15 0-20.09 8.94-20.09 20.08 0 11.14 8.94 20.08 20.08 20.08 10.97 0 19.91-9.12 20.08-20.09 0-11.15-8.95-20.09-20.09-20.09Zm138.59 0c-11.15 0-20.09 8.94-20.09 20.08 0 11.14 8.94 20.08 20.08 20.08 10.97 0 20.08-9.12 20.08-20.09 0-11.15-8.95-20.09-20.09-20.09Zm-274.66 0c-11.15 0-20.09 8.94-20.09 20.08 0 11.14 8.94 20.08 20.08 20.08 10.97 0 20.08-9.12 20.08-20.09 0-11.15-8.95-20.09-20.09-20.09Zm428.6 0c-11.15 0-20.09 8.94-20.09 20.08 0 11.14 8.94 20.08 20.08 20.08 10.97 0 20.08-9.12 20.08-20.09 0-11.15-8.95-20.09-20.09-20.09Z"/></svg>
